X:1
T:Beneath the Cross of Jesus
T:Text: Elizabeth C. Clephane (1830-1869), alt. Tune: Frederick C. Maker (1844-1927)
T:76 86 86 86 ST. CHRISTOPHER www.hymnary.org/text/beneath_the_cross_of_jesus_i_fain_would
T:Beneath the Cross of Jesus
T:This hymn is in the public domain.  You may freely use this score for personal and congregational worship.  If you reproduce the score, please credit Hymnary.org as the source. 
T:This hymn is in the public domain.  You may freely use this score for personal and congregational worship.  If you reproduce the score, please credit Hymnary.org as the source. 
Z:This hymn is in the public domain.  You may freely use this score for personal and congregational worship.  If you reproduce the score, please credit Hymnary.org as the source.
%%score ( 1 2 ) ( 3 4 )
L:1/8
M:4/4
K:Db
V:1 treble nm="Piano" snm="Pno."
V:2 treble 
V:3 bass nm="Piano" snm="Pno."
V:4 bass 
V:1
 [FA]2 | z2 z [FA] [=E=G]2 [EB]2 | [FA]4 [DF]2 D2 | [CE]3 [DF] [DG]2 [CG]2 | [DF]6 | F2 | %6
w: 3~I|O cross, your|sha- dow for|my a- bi- ding|place;|I|
w: 1~Be-|the cross of|Je- sus I|glad- ly take my|stand|the|
w: 2~Up-|that cross of|Je- sus mine|eye at times can|see|the|
 [Dd]3 [Dd] [Dd]2 [Ec]2 | [FB]2 [FA]2 [EG]2 [_DF]2 | E3 E =E2 [B,E]2 | [CF]6 | [DF]2 | %11
w: ask no o- ther|sun- shine than the|sun- shine of his|face,|con-|
w: sha- dow of a|migh- ty Rock with-|in a wea- ry|land,|a|
w: ve- ry dy- ing|form of One who|suf- fered there for|me;|and|
 [DF]3 E D2 E2 | [DF]2 [DG]2 [DA]2 [DA]2 | [DB]3 [DB] [=DB]2 [DF]2 | [EG]6 | [EG]-[EG] | %16
w: tent to let the|world go by, to|know no gain nor|loss,|my _|
w: home with- in the|wil- der- ness, a|rest up- on the|way,|from the|
w: from my smit- ten|heart with tears two|won- ders I con-|fess|the _|
 [Gc]3 [GB] A2 [CG]2 | [DF]2 [DF]2 [DA]2 [DG]-[DG] | [DF]3 D [CF]2 [CE]2 | D6 |] %20
w: sin- ful self my|on- ly shame, my _|glo- ry all the|cross.|
w: bur- ning of the|noon- tide heat, and the|bur- den of the|day.|
w: won- ders of re-|deem- ing love and _|my un- wort- hi-|ness.|
V:2
 x2 | x8 | x6 D2 | x8 | x6 | E2 | x8 | x8 | D2 x D D2 x2 | x6 | x2 | x3 D D2 D2 | x8 | x8 | x6 | %15
 x2 | x4 G2 x2 | x8 | x3 D x4 | D6 |] %20
V:3
 [D,A,]2 | [D,A,]3 [D,A,] [D,B,]2 [D,=G,]2 | [D,A,]4 [D,A,]2 [F,A,]2 | %3
 A,3 [F,A,] [E,B,]2 [A,,A,]2 | [D,A,]6 | [C,=A,]2 | [B,,B,]3 [B,,B,] x2 [C,=A,]2 | %7
 [D,B,]2 [=D,B,]2 [E,B,]2 [F,B,]2 | [G,B,]3 [G,B,] [G,B,]2 [G,B,]2 | [F,=A,]6 | [D,_A,]2 | %11
 [D,A,]3 [D,G,] [D,F,]2 [D,G,]2 | [D,A,]2 [D,B,]2 [D,_C]2 [D,C]2 | %13
 [G,B,]3 [G,B,] [F,B,]2 [B,,B,]2 | [E,B,]6 | [E,B,]-[E,B,] | [A,,E]3 [A,,D] [A,,C]2 [A,,A,]2 | %17
 [D,A,]2 [D,A,]2 [F,,_C]2 [G,,B,]-[G,,B,] | [A,,A,]3 [A,,F,] [A,,A,]2 [A,,G,]2 | [D,F,]6 |] %20
V:4
 x2 | x8 | x8 | G,3 x5 | x6 | x2 | x8 | x8 | x8 | x6 | x2 | x8 | x8 | x8 | x6 | x2 | x8 | x8 | x8 | %19
 x6 |] %20

